packages/ui-icons/src/Basic/16/Megafon-Bank_16.svg

<svg xmlns="http://www.w3.org/2000/svg" viewBox="0 0 20 20"><path d="M7.9 17.72A8 8 0 1 0 2 10a7.81 7.81 0 0 0 .27 2.06l1-.26A7.1 7.1 0 0 1 3 10a7 7 0 1 1 5.16 6.75Zm-3.18-3.2a.75.75 0 1 0 .75.75.76.76 0 0 0-.75-.75Zm-1.14-1.46a.75.75 0 1 0 .75.75.75.75 0 0 0-.75-.75Zm2.62 2.61a.75.75 0 1 0 .75.75.76.76 0 0 0-.75-.75ZM11 11a2.5 2.5 0 0 0 0-5H8v4H7v1h1v1H7v1h1v1.5h1V13h3v-1H9v-1ZM9 7h2a1.5 1.5 0 0 1 0 3H9Z"/></svg>

<svg xmlns="http://www.w3.org/2000/svg" viewBox="0 0 20 20">
<g id="New"><path d="M7.9,17.72A8,8,0,1,0,2,10a7.81,7.81,0,0,0,.27,2.06l1-.26A7.1,7.1,0,0,1,3,10a7,7,0,1,1,5.16,6.75Zm-3.18-3.2a.75.75,0,1,0,.75.75A.76.76,0,0,0,4.72,14.52ZM3.58,13.06a.75.75,0,1,0,.75.75A.75.75,0,0,0,3.58,13.06ZM6.2,15.67a.75.75,0,1,0,.75.75A.76.76,0,0,0,6.2,15.67ZM11,11a2.5,2.5,0,0,0,0-5H8v4H7v1H8v1H7v1H8v1.5H9V13h3V12H9V11ZM9,7h2a1.5,1.5,0,0,1,0,3H9Z"/></g></svg>
